X:B15D1
T:Roger de Coverley
M:9/8
O:England
K:G
P:A
"D"D>ED D2B A>FD| "Em"B,2E E>FD "A"CB,A,| "G"D>ED D2B "A"A>FA| "D"d2D D>ED "A"CB,A,:|
P:B
"D/F"AFA "G"BGB "Bm"A>FD| "Em"B,2E E>FD "A"CB,A,| "D/F"AFA "G"BGB "A"A>Bc| "D"d2D D>ED "A"CB,A,:|
P:C
"D"d>ed "G"c2B "Bm"A>FD| "Em"B,EE E>FD "A"CB,A,| "G"d>ed "A"c2B A>Bc| "D"d2D D>ED "A"CB,A,:|

